!!!!SEGMENT: pl-kk--kk-i-6--040-001_anonim--missa-supra-resonet-kyrie.krn
!!!cenid: 16xx:1030
!!!COM: Anonim
!!!COM-rismid: pe30004985
!!!CDT:
!!!CNT:
!!!OPR: Missa supra Resonet
!!!OTL: Kyrie
!!!OMV: 001
!!!PDT:
!!!AGN: Sacred; Mass
!!!SMS-siglum: PL-Kk
!!!SMS-shelfmark: Kk.I.6
!!!SMS-shelfwork: 040-001 M
!!!SMS-variant:
!!!SMS-altvar:
!!!NIFC-rismid: 1001136502
!!!URL-scan: http://repozytorium.nifc.pl/skany/pl-kk-nut--i-6
!!!ONB-nifc: UWAGA: C (skan 0062-0064, s. 120-124), T (skan 0174-0176, s. 152-156), B (skan 0283-0285, s. 148-152) Części Mszy: 1. Kyrie, 2. Et in terra, 3. Sanctus, 4. Agnus Dei
!!!AIN: 1 empty 1 tenor 1 vox
!!!key:
**kern	**text	**kern	**text	**kern	**text
*part3	*part3	*part2	*part2	*part1	*part1
*staff3	*staff3	*staff2	*staff2	*staff1	*staff1
*group1	*	*group1	*	*group1	*
*Iempty	*	*Itenor	*	*Ivox	*
*I"Baſso.	*	*I"Tenore.	*	*I"Cantus.	*
*I'B	*	*I'T	*	*I'S	*
*clefF4	*	*clefC4	*	*clefC1	*
*k[]	*	*k[]	*	*k[]	*
*G:	*	*G:	*	*G:	*
*M3/2	*	*M3/2	*	*M3/2	*
=1-	=1-	=1-	=1-	=1-	=1-
!LO:TX:a:t=Miſsa supra Resonet. A 4. Voc(ibu)ſ	!	!LO:TX:a:t=Miſsa supra Resonet. A 4. Vo(cibu)ſ	!	!LO:TX:a:t=Miſsa de Natiuitate Con <...> supra Resonet A 4 <...>	!
1G	KY-	1d	KY-	1dd	KY-
2G\	-ri-	2d\	-ri-	2b\	-ri-
=2-	=2-	=2-	=2-	=2-	=2-
1G	-e	1B	-e	1g	-e
2G\	e-	2G/	e-	2b\	e-
=3-	=3-	=3-	=3-	=3-	=3-
1G	-le-	1B	-le-	1dd	-le-
2C/	-i-	2c\	-i-	2ee\	-i-
=4-	=4-	=4-	=4-	=4-	=4-
!LO:TX:t=P:problem=cezura na 2. linii	!	!	!	!	!
1.G,<	-son	1.B	-son	1.dd	-son
=5-	=5-	=5-	=5-	=5-	=5-
*	*ij	*	*	*	*ij
1G	KY-	1B	Kÿ-	1dd	KY-
2A\	-ri-	2c\	-ri-	2cc\	-ri-
=6-	=6-	=6-	=6-	=6-	=6-
1G	-e	1d	-e	1b	-e
2GG/	e-	2d\	e-	2dd\	e-
=7-	=7-	=7-	=7-	=7-	=7-
1C	-le-	1e	-le-	1cc	-le-
2D/	-i-	2d\	-i-	2a\	-i-
=8-	=8-	=8-	=8-	=8-	=8-
*	*	*custos:d	*	*	*
!	!	!LO:TX:t=P:problem=cezura na 2. linii	!	!	!
!LO:TX:t=P:problem=cezura pod 1. linią	!	!	!	!LO:TX:t=P:problem=cezura na 1. linii	!
1GG,<	-son	1.d,<	-son	1b,<	-son
*	*Xij	*	*	*	*Xij
*custos:F	*	*	*	*	*
2G\	Kẏ-	.	.	2b\	Kẏ-
!LO:LB:g=original	!	!LO:LB:g=original	!	!	!
=9-	=9-	=9-	=9-	=9-	=9-
!LO:TX:b:t=P:problem=# below	!	!	!	!	!
1F#X	-rie	1d	Kÿ-	1dd	-ri-
*	*	*	*	*custos:g	*
2G\	e-	2d\	-ri-	2b\	-e
!	!	!	!	!LO:LB:g=original	!
=10-	=10-	=10-	=10-	=10-	=10-
1G	-lei-	1B	-e	1g	e-
!LO:TX:t=P:problem=cezura pod 1. linią	!	!	!	!	!
2G,<\	-son	2.G/	e-	2b\	-lei-
=11-	=11-	=11-	=11-	=11-	=11-
2.GG/	Kẏ-	.	.	1b	-ſon
.	.	4A/	.	.	.
.	.	4B\	.	.	.
4AA/	-ri-	4c\	.	.	.
*	*	*	*	*	*ij
!	!	!LO:TX:t=P:problem=kreska pseudotaktowa	!	!	!
4BB/	-e	2d\	.	2b\	Kẏ-
*	*ij	*	*	*	*
4C/	Kẏ-	.	.	.	.
=12-	=12-	=12-	=12-	=12-	=12-
1D	-ri-	1d	-lei-	1a	-ri-
!	!	!LO:TX:t=P:problem=cezura na 1. linii	!	!	!
2AA/	-e	2e,<\	-ſon	2cc\	-e
*	*Xij	*	*	*	*
=13-	=13-	=13-	=13-	=13-	=13-
2BB/	e-	2d\	e-	2b\	e-
2C/	-le-	2e\	-le-	1a	-lei-
2D/	-i-	2d\	-i-	.	.
=14-	=14-	=14-	=14-	=14-	=14-
1.GG	-son	1.d	-son	1.g	-ſon
*	*	*	*	*	*Xij
=15-	=15-	=15-	=15-	=15-	=15-
1G	Kÿ-	1B	Kẏ-	1dd	Kẏ-
2G\	-ri-	2B\	-ri-	2b\	-ri-
=16-	=16-	=16-	=16-	=16-	=16-
1G	-e	1d	-e	1g	-e
2G\	e-	2d\	e-	2b\	e-
=17-	=17-	=17-	=17-	=17-	=17-
2.GG/	.	1d	-lei-	1b	-lei-
4AA/	.	.	.	.	.
4BB/	.	2G/	-son	2b\	-son
4C/	.	.	.	.	.
=18-	=18-	=18-	=18-	=18-	=18-
*	*	*	*	*	*ij
1D	-lei-	2r	.	1a	Kẏ-
.	.	2A/	Kẏ-	.	.
*	*	*custos:d	*	*	*
!LO:TX:t=P:problem=cezura pod 1. linią	!	!	!	!	!
2AA,</	-ſon	2A/	-ri-	2cc\	-rie
!	!	!LO:LB:g=original	!	!	!
=19-	=19-	=19-	=19-	=19-	=19-
2BB/	e-	2d\	-e-	2b\	e-
2C/	-le-	2c\	-le-	1a	-lei-
*custos:GG	*	*	*	*	*
2D/	-i-	2A/	-i-	.	.
!LO:LB:g=original	!	!	!	!	!
=20||	=20||	=20||	=20||	=20||	=20||
*M2/2	*	*M2/2	*	*M2/2	*
*met(c|)	*	*met(c|)	*	*met(c|)	*
*	*	*	*	*custos:dd	*
2GG/	-Son	2B\	-ſon	1g	-son
*	*	*	*	*	*Xij
2rAA	.	8r	.	.	.
.	.	8d\	chri-	.	.
.	.	8B\	-ſte	.	.
.	.	8d\	e-	.	.
!	!	!	!	!LO:LB:g=original	!
=21-	=21-	=21-	=21-	=21-	=21-
1rD	.	4c\	-lei-	2r	.
!	!	!LO:TX:t=P:problem=cezura pod 1. linią	!	!	!
.	.	8A,<\	-ſon	.	.
.	.	8c\	e-	.	.
.	.	8B\L	.	8r	.
.	.	8A\J	.	8dd\	Chri-
.	.	4G/	-le-	8b\	-ſte
!	!	!	!	!LO:TX:t=P:problem=kreska pseudotaktowa	!
.	.	.	.	8dd\	e-
=22-	=22-	=22-	=22-	=22-	=22-
2rC	.	2A/	-i-	4cc\	-lei-
.	.	.	.	8a\	-ſon
.	.	.	.	8cc\	e-
!	!	!LO:TX:t=P:problem=cezura na 1. linii	!	!	!
8r	.	4G,</	-Son	8.b\L	.
8G\	Chri-	.	.	.	.
.	.	.	.	16a\Jk	.
!	!	!	!	!LO:TX:t=P:problem=kreska pseudotaktowa	!
8E\	-ſte	4B\	e-	4g/	.
8G\	e-	.	.	.	.
=23-	=23-	=23-	=23-	=23-	=23-
4F\	-lei-	4c\	-le-	2a\	-lei-
!LO:TX:t=P:problem=cezura pod 1. linią	!	!	!	!	!
8D,<\	-son	4d\	-i-	.	.
8F\	e-	.	.	.	.
8E\L	.	2e\	-son	4g\	-son
8D\J	.	.	.	.	.
!	!	!	!	!LO:TX:t=P:problem=kreska pseudotaktowa	!
4C/	.	.	.	4r	.
=24-	=24-	=24-	=24-	=24-	=24-
8D\L	.	2d\	.	8ra	.
8E\	.	.	.	8dd\	chr(i-
8F\	.	.	.	8b\	-st)e
8G\J	.	.	.	8dd\	e-
2A\	-lei-	2r	.	4cc\	-lei-
!	!	!	!	!LO:TX:t=P:problem=cezura pod 1. linią	!
.	.	.	.	8a,<\	-son
!	!	!	!	!LO:TX:t=P:problem=kreska pseudotaktowa	!
.	.	.	.	8cc\	e-
=25-	=25-	=25-	=25-	=25-	=25-
2G\	-son	8r	.	8.b\L	-lei-
.	.	8d\	chri-	.	.
.	.	.	.	16a\Jk	.
.	.	8B\	-ſte	4g/	.
*	*	*custos:c	*	*	*
.	.	8d\	e-	.	.
!	!	!LO:LB:g=original	!	!LO:TX:t=P:problem=cezura pod 1. linią	!
2r	.	4c\	-le-	8a,<\	-son
.	.	.	.	8ee\	chr(i-
.	.	8A\	-i-	8cc\	-st)e
*	*	*	*	*custos:dd	*
!	!	!	!	!LO:TX:t=P:problem=kreska pseudotaktowa	!
.	.	8c\	-son	8ee\	e-
!	!	!	!	!LO:LB:g=original	!
=26-	=26-	=26-	=26-	=26-	=26-
0r	.	8B\L	e-	4dd\	-lei-
.	.	8A\J	.	.	.
.	.	4G/	.	8b\	-ſon
.	.	.	.	8dd\	e-
.	.	4A\	.	4cc\	.
.	.	4B\	.	8dd\L	.
!	!	!	!	!LO:TX:t=P:problem=kreska pseudotaktowa	!
.	.	.	.	8a\J	.
=27-	=27-	=27-	=27-	=27-	=27-
.	.	8c\L	.	4g/	.
.	.	16B\L	.	.	.
.	.	16c\JJ	.	.	.
.	.	4d\	-le-	4f/	.
!	!	!	!	!LO:TX:t=P:problem=kreska pseudotaktowa	!
.	.	2A/	-i-	2e/	-lei-
=28-	=28-	=28-	=28-	=28-	=28-
!	!	!LO:TX:t=P:problem=cezura pod 1. linią	!	!	!
8r	.	2D,</	-ſon	2d/	-son
8D/	Chri-	.	.	.	.
8BB/	-ſte	.	.	.	.
8D/	e-	.	.	.	.
4C/	-lei-	4G/	e-	2rf	.
!LO:TX:t=P:problem=cezura pod 1. linią	!	!	!	!	!
8AA,</	-son	4A/	-lei-	.	.
*custos:B	*	*	*	*	*
8C/	e-	.	.	.	.
!LO:LB:g=original	!	!	!	!	!
=29-	=29-	=29-	=29-	=29-	=29-
!	!	!LO:TX:t=P:problem=cezura pod 1. linią	!	!	!
8BB/L	.	8D,</	-ſon	1rg	.
8AA/J	.	8d\	chri-	.	.
4GG/	-le-	8B\	-ſte	.	.
.	.	8d\	e-	.	.
2AA/	-i-	4c\	-le-	.	.
.	.	8A\	-i-	.	.
.	.	8c\	-son	.	.
=30-	=30-	=30-	=30-	=30-	=30-
!LO:TX:t=P:problem=cezura pod 1. linią	!	!	!	!	!
2GG,</	-son	8B\L	e-	8r	.
.	.	8A\J	.	8dd\	chr(i-
.	.	4G/	.	8b\	-st)e
.	.	.	.	8dd\	e-
2AA/	e-	2c\	-lei-	4cc\	-lei-
.	.	.	.	8a\	-son
!	!	!	!	!LO:TX:t=P:problem=kreska pseudotaktowa	!
.	.	.	.	8cc\	e-
=31-	=31-	=31-	=31-	=31-	=31-
*	*	*custos:e	*	*	*
2BB/	-le-	2G/	-ſon	8.b\L	.
.	.	.	.	16a\Jk	.
.	.	.	.	8g/L	.
.	.	.	.	8f/J	.
!	!	!LO:LB:g=original	!	!LO:TX:t=P:problem=kreska pseudotaktowa	!
2C/	-i-	8r	.	2e/	-lei-
.	.	8e\	chri-	.	.
.	.	8c\	-ſte	.	.
.	.	8e\	e-	.	.
=32-	=32-	=32-	=32-	=32-	=32-
!LO:TX:t=P:problem=cezura pod 1. linią	!	!	!	!	!
8GG,</	-son	4d\	-lei-	2g/	-son
8G\	chri-	.	.	.	.
8E\	-ſte	8G/	-ſon	.	.
8G\	e-	8G/	e-	.	.
4F\	-le-	4c\	-le-	8r	.
*	*	*	*	*	*ij
.	.	.	.	8a\	chr(i-
8D\	-i-	4d\	-i-	8f\	-st)e
*	*	*	*	*custos:g	*
!	!	!	!	!LO:TX:t=P:problem=kreska pseudotaktowa	!
8F\	-son	.	.	8a\	e-
!	!	!	!	!LO:LB:g=original	!
=33-	=33-	=33-	=33-	=33-	=33-
8E\L	e-	2e\	-son	4g/	-lei-
8D\J	.	.	.	.	.
4C/	.	.	.	4g/	-son
*	*	*	*	*	*Xij
4D/	.	2d\	.	8r	.
.	.	.	.	8dd\	chr(i-
4GG/	-le-	.	.	8b\	-st)e
!	!	!	!	!LO:TX:t=P:problem=kreska pseudotaktowa	!
.	.	.	.	8dd\	e-
=34-	=34-	=34-	=34-	=34-	=34-
2AA/	-i-	1r	.	4cc\	-lei-
.	.	.	.	8a\	-son
.	.	.	.	8cc\	e-
!LO:TX:t=P:problem=cezura pod 1. linią	!	!	!	!	!
4E,<\	-son	.	.	8.b\L	.
.	.	.	.	16a\Jk	.
!	!	!	!	!LO:TX:t=P:problem=kreska pseudotaktowa	!
4E\	e-	.	.	4g/	.
=35-	=35-	=35-	=35-	=35-	=35-
2F\	-lei-	8r	.	2a\	-lei-
.	.	8A/	chri-	.	.
.	.	8F/	-ſte	.	.
.	.	8A/	e-	.	.
*custos:D	*	*	*	*	*
2C/	-ſon	4G/	-ley-	4g/	-Son
!	!	!	!	!LO:TX:t=P:problem=kreska pseudotaktowa	!
.	.	8E/	-ſon	4re	.
.	.	8G/	e-	.	.
!LO:LB:g=original	!	!	!	!	!
=36-	=36-	=36-	=36-	=36-	=36-
8r	.	8F/L	.	2r	.
8D/	Chri-	8E/J	.	.	.
8BB/	-ſte	4D/	.	.	.
8D/	e-	.	.	.	.
4C/	-le-	2E/	-le-	8ra	.
.	.	.	.	8ee\	chr(i-
8AA/	-i-	.	.	8cc\	-st)e
!	!	!	!	!LO:TX:t=P:problem=kreska pseudotaktowa	!
8C/	-son	.	.	8ee\	e-
=37-	=37-	=37-	=37-	=37-	=37-
8BB/L	e-	2G/	-i-	4dd\	-lei-
8AA/J	.	.	.	.	.
4GG/	-le-	.	.	8b\	-son
.	.	.	.	8dd\	e-
!	!	!LO:TX:t=P:problem=cezura pod 1. linią	!	!	!
2AA/	-i-	4C,</	-ſon	4cc\	-lei-
*	*	*custos:d	*	*	*
.	.	4c\	chri-	8a\	-son
!	!	!	!	!LO:TX:t=P:problem=kreska pseudotaktowa	!
*	*	*	*	*	*ij
.	.	.	.	8cc\	chr(i-
!	!	!LO:LB:g=original	!	!	!
=38-	=38-	=38-	=38-	=38-	=38-
!LO:TX:t=P:problem=cezura pod 1. linią	!	!	!	!	!
4GG,</	-son	4.d\	-ſte	4b\	-st)e
4BB/	e-	.	.	4dd\	e-
.	.	8D/	e-	.	.
4C/	-le-	2A/	-lei-	4cc\	.
*	*	*	*	*custos:b	*
!	!	!	!	!LO:TX:t=P:problem=kreska pseudotaktowa	!
4D/	-i-	.	.	4a\	-lei-
!	!	!	!	!LO:LB:g=original	!
=39-	=39-	=39-	=39-	=39-	=39-
!	!	!	!	!LO:TX:t=P:problem=kreska pseudotaktowa	!
1GG	-son.	1G	-ſon.	1b;	-son
*	*	*	*	*	*Xij
=40||	=40||	=40||	=40||	=40||	=40||
*M3/2	*	*M3/2	*	*M3/2	*
1G	Kÿ-	1d	Kẏ-	1dd	Kẏ-
2G\	-ri-	2d\	-ri-	2b\	-ri-
=41-	=41-	=41-	=41-	=41-	=41-
1G	-e	1B	-e	1g	-e
2G\	e-	2G/	e-	2b\	e-
=42-	=42-	=42-	=42-	=42-	=42-
1G	-le-	1B	-le-	1dd	-le-
2C/	-i-	2c\	-i-	2ee\	-i-
=43-	=43-	=43-	=43-	=43-	=43-
*custos:G	*	*	*	*	*
1.G	-son	1.B	-son	1.dd	-son
!LO:LB:g=original	!	!	!	!	!
=44-	=44-	=44-	=44-	=44-	=44-
*	*ij	*	*ij	*	*
1G	Kẏ-	1B	Kẏ-	1dd	Kẏ-
2A\	-ri-	2c\	-ri-	2cc\	-ri-
=45-	=45-	=45-	=45-	=45-	=45-
1G	-e	1d	-e	1b	-e
2GG/	e-	2d\	e-	2dd\	e-
=46-	=46-	=46-	=46-	=46-	=46-
1C	-le-	1e	-le-	1cc	-lei-
2D/	-i-	2d\	-i-	2a\	-son
=47-	=47-	=47-	=47-	=47-	=47-
!LO:TX:t=P:problem=cezura pod 1. linią	!	!	!	!	!
*	*	*	*	*	*ij
1GG,<	-son	1.d	-son	1b	Kẏ-
*	*Xij	*	*Xij	*	*
2G\	Kẏ-	.	.	2b\	-ri-
=48-	=48-	=48-	=48-	=48-	=48-
!LO:TX:b:t=P:problem=# below	!	!	!	!	!
1F#X	-ri-	1d	Kẏ-	1dd	-e
2G\	-e	2d\	-ri-	2b\	e-
=49-	=49-	=49-	=49-	=49-	=49-
*	*	*custos:G	*	*	*
1G	e-	1B	-e	1g	-lei-
*	*	*	*	*custos:b	*
!	!	!LO:LB:g=original	!	!	!
2G\	.	2.G/	e-	2b\	-son
*	*	*	*	*	*Xij
!	!	!	!	!LO:LB:g=original	!
=50-	=50-	=50-	=50-	=50-	=50-
2.GG/	.	.	.	1b	Kẏ-
.	.	4A/	.	.	.
.	.	4B\	.	.	.
4AA/	.	4c\	.	.	.
4BB/	.	2d\	.	2b\	-ri-
4C/	.	.	.	.	.
=51-	=51-	=51-	=51-	=51-	=51-
2.D/	.	1d	-lei-	1a	-e
8C/L	.	.	.	.	.
8BB/J	.	.	.	.	.
!	!	!LO:TX:t=P:problem=cezura na 1. linii	!	!	!
2AA/	-e-	2e,<\	-ſon	2cc\	e-
=52-	=52-	=52-	=52-	=52-	=52-
2BB/	-le-	2d\	e-	2b\	-le-
2C/	-i-	2e\	-le-	1a	-i-
2D\	-son.	2d\	-i-	.	.
=53-	=53-	=53-	=53-	=53-	=53-
1.GG	.	1.d	-ſon	1.g	-son
!LO:LB:g=original	!	!	!	!	!
=54-	=54-	=54-	=54-	=54-	=54-
1G	Kẏ-	1B	Kẏ-	1dd	Kẏ-
2G\	-ri-	2B\	-ri-	2b\	-ri-
=55-	=55-	=55-	=55-	=55-	=55-
1G	-e	1d	-e	1g	-e
2G\	e	2d\	e-	2b\	e-
=56-	=56-	=56-	=56-	=56-	=56-
2.GG/	.	1d	-lei-	1b	-lei-
4AA/	.	.	.	.	.
4BB/	.	2G/	-son	2b\	-son
4C/	.	.	.	.	.
=57-	=57-	=57-	=57-	=57-	=57-
*	*	*	*	*	*ij
2.D/	e-	2r	.	1a	Kẏ-
.	.	2A/	Kẏ-	.	.
8C/L	.	.	.	.	.
8BB/J	.	.	.	.	.
2AA/	.	2A/	-ri-	2cc\	-rie
=58-	=58-	=58-	=58-	=58-	=58-
2BB/	.	2d\	-e	2b\	e-
2C/	-le-	2c\	e-	1a	-lei-
*	*	*custos:B	*	*	*
2D/	-i-	2A/	-lei-	.	.
!	!	!LO:LB:g=original	!	!	!
=59-	=59-	=59-	=59-	=59-	=59-
*M2/2	*	*M2/2	*	*M2/2	*
*met(c|)	*	*met(c|)	*	*met(c|)	*
*	*	*	*	*custos:cc	*
!LO:TX:t=P:problem=cezura pod 1. linią	!	!LO:TX:t=P:problem=cezura pod 1. linią	!	!	!
2GG,</	-son	2B,<\	-Son	1g	-son
*	*	*	*	*	*Xij
1C/	Kẏ-	4c\	Kẏ-	.	.
.	.	4d\	-ri-	.	.
!	!	!	!	!LO:LB:g=original	!
=60-	=60-	=60-	=60-	=60-	=60-
.	.	2e\	-e	2cc\	e-
2BB/	-rie	2d\	e-	2dd\	.
=61-	=61-	=61-	=61-	=61-	=61-
1C	elei-	1c	-lei-	1ee	-lei-
=62-	=62-	=62-	=62-	=62-	=62-
0GGl	-son.	0Bl	-ſon.	0ddl;	-son.
==	==	==	==	==	==
*-	*-	*-	*-	*-	*-
!!!system-decoration: [g1]
!!!RDF**kern: > = above
!!!RDF**kern: < = below
!!!RDF**kern: l = terminal long
!!!ENC: Andrzej Kubiczek
!!!END: 2021-03-25
!!!ENC: Kamil Watkowski
!!!END: 2021-03-09
